X: 46
T:VALSE ECOSSAISE
M:3/4
L:1/8
Q:1/4=88
K:C
|Ge2 dc2|BAB cG2|Ge2 dc2|BAB cd2|
Ge2 dc2|BAB cG2|GAd cBe|dc3c2|!
Ge2 Ge2|Geg3/2e/2c2|Gd2 Gd2|Gdc def|
ge2 Ge2|Geg3/2e/2c2|GAd cBe|dce dc2|
